src/assets/Devices/PS5 Top-bumppers.svg

<svg width="950" height="455" fill="none" xmlns="http://www.w3.org/2000/svg"><path opacity=".2" d="M322.771 170.733c-30.075 0-80.337-18.127-107.116-53.558-7.483-9.901-14.806-23.052-22.516-36.9-19.88-35.702-42.337-76.033-76.772-77.22-47.79-1.648-90.225 33.783-103.82 92.285-13.596 58.502-14.2 112.471 8.239 189.513 12.36 42.434 33.37 90.636 64.27 99.7 30.899 9.064 134.719 11.124 186.217 4.944 1.785 1.511 8.816 4.449 22.659 4.12 12.595-.3 111.631-.168 172.622-.038v.038l8.446-.02 8.446.02v-.038c60.991-.13 160.027-.262 172.622.038 13.843.329 20.874-2.609 22.659-4.12 51.498 6.18 155.319 4.12 186.217-4.944 30.899-9.064 51.911-57.266 64.27-99.7 22.439-77.042 21.835-131.011 8.24-189.513-13.596-58.502-56.03-93.933-103.821-92.285-34.435 1.187-56.892 41.518-76.772 77.22-7.71 13.848-15.033 26.999-22.516 36.9-26.779 35.431-77.041 53.558-107.116 53.558H322.771Z" stroke="#fff" stroke-width="6"/><path opacity=".2" d="M3.07 164.967c0 45.731 3.296 143.783 75.394 143.371M227 277.469c0 45.318 18.318 65.888 100.303 65.888h164.382m-219.588 43.258c-7.416 1.374-25.296 4.038-37.491 3.708-15.243-.412-73.786-.882-114.12-12.36-50.674-14.42-56.03-55.618-51.91-97.64 4.957-50.564 18.951-109.176 36.667-128.951 17.715-19.776 44.494-42.023 91.46-24.719 46.967 17.303 33.783 70.448 124.832 70.86 72.839.33 129.775.138 170.15 0" stroke="#fff" stroke-width=".824"/><path opacity=".2" d="M946.93 165.004c0 45.731-3.296 143.783-75.394 143.371m-147.902-31.723c0 45.319-18.952 66.742-100.937 66.742H458.315m219.588 43.258c7.416 1.374 25.296 4.038 37.491 3.708 15.243-.412 73.786-.882 114.12-12.36 50.674-14.42 56.03-55.618 51.91-97.64-4.957-50.564-18.951-109.176-36.667-128.951-17.715-19.775-44.494-42.023-91.46-24.719-46.967 17.303-33.783 70.449-124.832 70.861-72.839.329-129.775.137-170.15 0m-294.57-68.016c56.442 0 64.682 40.375 64.682 78.689-.687 25.681-2.06 81.656-2.06 100.113 0 23.071-1.236 39.962-15.243 49.85-14.008 9.888-36.667 9.476-67.154 9.476-30.487 0-52.322-20.6-61.798-43.259-9.475-22.659 1.648-86.105 9.476-111.648 7.828-25.543 15.655-83.221 72.097-83.221Z" stroke="#fff" stroke-width=".824"/><path opacity=".2" d="M786.667 129.535c-56.442 0-64.682 40.375-64.682 78.689.687 25.681 2.06 81.656 2.06 100.113 0 23.071 1.236 39.962 15.243 49.85 14.008 9.888 36.667 9.476 67.154 9.476 30.487 0 52.322-20.6 61.798-43.259 9.475-22.659-1.648-86.105-9.476-111.648-7.828-25.543-15.655-83.221-72.097-83.221Zm-344.42 172.622c0-5.461 4.427-9.888 9.888-9.888h38.726c5.461 0 9.888 4.427 9.888 9.888s-4.427 9.888-9.888 9.888h-38.726c-5.461 0-9.888-4.427-9.888-9.888Z" stroke="#fff" stroke-width=".824"/><path opacity=".2" d="M206.355 393h45.178v8.435a3.718 3.718 0 0 1-3.718 3.718h-41.46V393ZM112 393h45.177v12.153h-41.459a3.717 3.717 0 0 1-3.718-3.718V393Zm47.178 0h45.177v12.153h-45.177V393Zm504.798 0h56.971v8.435a3.717 3.717 0 0 1-3.717 3.718h-49.537a3.717 3.717 0 0 1-3.717-3.718V393Z" stroke="#fff" stroke-width="2"/><path opacity=".2" d="M655.875 403.794a5.898 5.898 0 0 0-5.897 5.898v19.538a3.538 3.538 0 0 0 3.538 3.538h17.485c4.573 0 7.945 4.271 6.884 8.718l-2.12 8.889a4.717 4.717 0 0 1-4.589 3.623h-99.188a4.718 4.718 0 0 1-4.589-3.623l-2.12-8.889c-1.06-4.447 2.312-8.718 6.884-8.718h18.176a3.538 3.538 0 0 0 3.538-3.538v-19.538a5.898 5.898 0 0 0-5.897-5.898h-21.896a11.233 11.233 0 0 1-10.24-6.614c-1.061-4.448 2.311-5.18 6.883-5.18h100.249v9.435c0 .86.23 1.665.631 2.359h-7.732ZM726.486 393h56.972v8.435a3.717 3.717 0 0 1-3.718 3.718h-49.536a3.718 3.718 0 0 1-3.718-3.718V393Zm61.33 0h56.972v8.435a3.717 3.717 0 0 1-3.718 3.718h-49.536a3.718 3.718 0 0 1-3.718-3.718V393ZM351.58 409.692a5.898 5.898 0 0 1 5.897-5.898h21.206c4.417 0 8.424-2.588 10.24-6.614 1.061-4.447-2.311-5.18-6.884-5.18H264.33c-4.572 0-7.944.732-6.884 5.18a11.233 11.233 0 0 0 10.24 6.614h21.896a5.898 5.898 0 0 1 5.897 5.898v19.538a3.538 3.538 0 0 1-3.538 3.538h-18.176c-4.572 0-7.944 4.271-6.883 8.718l2.119 8.889a4.719 4.719 0 0 0 4.589 3.623h99.189a4.718 4.718 0 0 0 4.589-3.623l2.12-8.889c1.06-4.447-2.312-8.718-6.884-8.718h-17.485a3.538 3.538 0 0 1-3.539-3.538v-19.538Z" stroke="#fff" stroke-width="2"/><path opacity=".2" d="M269.59 382.547c0-13.231 10.726-23.957 23.957-23.957h361.906c13.231 0 23.957 10.726 23.957 23.957 0 7.656-6.207 13.863-13.863 13.863H283.453c-7.656 0-13.863-6.207-13.863-13.863Z" stroke="#fff" stroke-width="1.179"/><path opacity=".2" d="M279.496 377.372c-.676 2.266-.676 5.001-.675 9.903v.467c-.001 1.425-.001 2.399.246 3.227a5.899 5.899 0 0 0 3.964 3.964c.828.247 1.802.247 3.227.246h376.484c1.425.001 2.399.001 3.227-.246a5.899 5.899 0 0 0 3.964-3.964c.247-.828.247-1.802.247-3.227l-.001-.202v-.265c.001-4.902.001-7.637-.675-9.903a16.186 16.186 0 0 0-10.876-10.876c-2.266-.676-5.001-.676-9.903-.675h-348.45c-4.902-.001-7.637-.001-9.903.675a16.186 16.186 0 0 0-10.876 10.876Z" stroke="#fff" stroke-width="2.359"/><g opacity=".2"><path d="M209.063 148.487c13.184 18.952 17.304 46.967 11.536 103.409-42.16-.825-126.974-2.885-128.951-4.533-1.978-1.648-.824-9.75 0-13.596 9.475-45.73 23.071-92.695 48.202-104.231 25.131-11.536 56.03 0 69.213 18.951Z" stroke="#fff" stroke-width="3"/><path d="M92.472 234.179c48.87 3.437 75.858 3.978 123.595 3.708m0 0 4.532 12.772m-4.532-12.772v-44.494c0-18.951-4.12-42.847-19.363-57.266" stroke="#fff" stroke-width=".824"/><path d="M174.173 221.382v-2.773l8.127-9.063c.903-1.01 1.618-1.945 2.145-2.805.526-.871.79-1.774.79-2.709 0-.989-.285-1.779-.855-2.371-.559-.602-1.344-.903-2.354-.903-1.021 0-1.86.339-2.516 1.016-.655.667-.983 1.715-.983 3.145v.419h-4.386v-.629c0-2.15.731-3.892 2.193-5.225 1.462-1.343 3.364-2.015 5.708-2.015 2.429 0 4.3.602 5.611 1.806 1.323 1.193 1.984 2.714 1.984 4.563 0 1.516-.382 2.87-1.145 4.064-.763 1.193-1.742 2.44-2.935 3.741l-5.531 6.24h10.159v3.499h-16.012Zm-16.173 0v-23.478h4.354v20.06h10.078v3.418H158Z" fill="#fff"/></g><g opacity=".2"><path d="M742.08 148.487c-13.183 18.952-17.303 46.967-11.535 103.409 42.159-.825 126.973-2.885 128.951-4.533 1.978-1.648.824-9.75 0-13.596-9.476-45.73-23.071-92.695-48.202-104.231-25.131-11.536-56.03 0-69.214 18.951Z" stroke="#fff" stroke-width="3"/><path d="M858.672 234.179c-48.871 3.437-75.858 3.978-123.596 3.708m0 0-4.532 12.772m4.532-12.772v-44.494c0-18.951 4.12-42.847 19.364-57.266" stroke="#fff" stroke-width=".824"/><path d="M780.722 221.382v-2.773l8.127-9.063c.903-1.01 1.618-1.945 2.144-2.805.527-.871.791-1.774.791-2.709 0-.989-.285-1.779-.855-2.371-.559-.602-1.344-.903-2.354-.903-1.022 0-1.86.339-2.516 1.016-.656.667-.984 1.715-.984 3.145v.419h-4.386v-.629c0-2.15.731-3.892 2.193-5.225 1.462-1.343 3.365-2.015 5.709-2.015 2.429 0 4.3.602 5.611 1.806 1.323 1.193 1.984 2.714 1.984 4.563 0 1.516-.382 2.87-1.145 4.064-.763 1.193-1.742 2.44-2.935 3.741l-5.531 6.24h10.159v3.499h-16.012Zm-18.722 0v-23.478h8.288c2.516 0 4.472.65 5.87 1.951 1.397 1.29 2.096 3.042 2.096 5.257 0 2.236-.709 4.026-2.128 5.37-1.419 1.333-3.376 1.999-5.87 1.999h-3.902v8.901H762Zm4.354-12.078h3.563c1.473 0 2.505-.381 3.096-1.144.592-.764.887-1.747.887-2.951s-.295-2.177-.887-2.919c-.591-.742-1.623-1.113-3.096-1.113h-3.563v8.127Zm8.159 12.078-5.321-10.707 4.337-.532 5.822 11.239h-4.838Z" fill="#fff"/></g><path d="M221.169 255.192c-1.098 21.424-2.341 66.95-3.296 77.454-.356 3.926-1.744 7.887-4.242 11.534m7.538-88.988-131.835-3.296c-8.24 36.255-7.979 68.39 8.24 88.577 16.218 20.188 46.966 19.776 76.217 19.776 20.803 0 33.688-7.086 39.84-16.069m7.538-88.988c-1.796 2.338-6.033 7.898-6.591 15.655-.799 11.095 7.581 60.974-.947 73.333" stroke="#fff" stroke-width="6"/><path d="M85.88 266.727c41.212 4.629 71.651 4.848 128.127 4.531" stroke="#fff" stroke-width=".824"/><path d="M181.058 315.205v-19.334l-5.821 2.177v-3.693l7.902-2.886h2.273v23.736h-4.354Zm-23.058 0v-23.478h4.354v20.059h10.078v3.419H158Z" fill="#fff"/><path d="M729.974 255.192c1.099 21.424 2.341 66.95 3.296 77.454.357 3.926 1.745 7.887 4.243 11.534m-7.539-88.988 131.835-3.296c8.24 36.255 7.979 68.39-8.239 88.577-16.219 20.188-46.967 19.776-76.217 19.776-20.804 0-33.688-7.086-39.84-16.069m-7.539-88.988c1.797 2.338 6.034 7.898 6.592 15.655.798 11.095-7.582 60.974.947 73.333" stroke="#fff" stroke-width="6"/><path d="M865.264 266.727c-41.212 4.629-71.651 4.848-128.128 4.531" stroke="#fff" stroke-width=".824"/><path d="M790.606 315.205v-19.334l-5.821 2.177v-3.693l7.901-2.886h2.274v23.736h-4.354Zm-25.606 0v-23.478h8.288c2.516 0 4.472.65 5.87 1.951 1.397 1.29 2.096 3.042 2.096 5.257 0 2.236-.709 4.026-2.128 5.369-1.419 1.333-3.376 2-5.87 2h-3.902v8.901H765Zm4.354-12.078h3.563c1.473 0 2.505-.381 3.096-1.145.592-.763.887-1.747.887-2.951s-.295-2.176-.887-2.918c-.591-.742-1.623-1.113-3.096-1.113h-3.563v8.127Zm8.159 12.078-5.321-10.707 4.337-.532 5.822 11.239h-4.838Z" fill="#fff"/></svg>

<svg width="950" height="455" viewBox="0 0 950 455" fill="none" xmlns="http://www.w3.org/2000/svg">
<path opacity="0.2" d="M322.771 170.733C292.696 170.733 242.434 152.606 215.655 117.175C208.172 107.274 200.849 94.1229 193.139 80.2759C173.259 44.573 150.802 4.2425 116.367 3.05509C68.5764 1.40714 26.1419 36.8379 12.5464 95.3398C-1.04914 153.842 -1.65304 207.811 20.7859 284.853C33.1453 327.287 54.1567 375.489 85.0556 384.553C115.955 393.617 219.775 395.677 271.273 389.497C273.058 391.008 280.089 393.946 293.932 393.617C306.527 393.317 405.563 393.449 466.554 393.579V393.617C469.242 393.61 472.063 393.604 475 393.597C477.937 393.604 480.758 393.61 483.446 393.617V393.579C544.437 393.449 643.473 393.317 656.068 393.617C669.911 393.946 676.942 391.008 678.727 389.497C730.225 395.677 834.046 393.617 864.944 384.553C895.843 375.489 916.855 327.287 929.214 284.853C951.653 207.811 951.049 153.842 937.454 95.3398C923.858 36.8379 881.424 1.40714 833.633 3.05509C799.198 4.2425 776.741 44.573 756.861 80.2759C749.151 94.1229 741.828 107.274 734.345 117.175C707.566 152.606 657.304 170.733 627.229 170.733H322.771Z" stroke="white" stroke-width="6"/>
<path opacity="0.2" d="M3.07031 164.967C3.07031 210.698 6.3662 308.75 78.4636 308.338M227 277.469C227 322.787 245.318 343.357 327.303 343.357C392.891 343.357 470.399 343.357 491.685 343.357M272.097 386.615C264.681 387.989 246.801 390.653 234.606 390.323C219.363 389.911 160.82 389.441 120.486 377.963C69.8119 363.543 64.4561 322.345 68.576 280.323C73.5333 229.759 87.5273 171.147 105.243 151.372C122.958 131.596 149.737 109.349 196.703 126.653C243.67 143.956 230.486 197.101 321.535 197.513C394.374 197.843 451.31 197.651 491.685 197.513" stroke="white" stroke-width="0.823971"/>
<path opacity="0.2" d="M946.93 165.004C946.93 210.735 943.634 308.787 871.536 308.375M723.634 276.652C723.634 321.971 704.682 343.394 622.697 343.394C557.109 343.394 479.601 343.394 458.315 343.394M677.903 386.652C685.319 388.026 703.199 390.69 715.394 390.36C730.637 389.948 789.18 389.478 829.514 378C880.188 363.58 885.544 322.382 881.424 280.36C876.467 229.796 862.473 171.184 844.757 151.409C827.042 131.634 800.263 109.386 753.297 126.69C706.33 143.993 719.514 197.139 628.465 197.551C555.626 197.88 498.69 197.688 458.315 197.551" stroke="white" stroke-width="0.823971"/>
<path opacity="0.2" d="M163.745 129.535C220.187 129.535 228.427 169.91 228.427 208.224C227.74 233.905 226.367 289.88 226.367 308.337C226.367 331.408 225.131 348.299 211.124 358.187C197.116 368.075 174.457 367.663 143.97 367.663C113.483 367.663 91.6479 347.063 82.1723 324.404C72.6966 301.745 83.8202 238.299 91.6479 212.756C99.4757 187.213 107.303 129.535 163.745 129.535Z" stroke="white" stroke-width="0.823971"/>
<path opacity="0.2" d="M786.667 129.535C730.225 129.535 721.985 169.91 721.985 208.224C722.672 233.905 724.045 289.88 724.045 308.337C724.045 331.408 725.281 348.299 739.288 358.187C753.296 368.075 775.955 367.663 806.442 367.663C836.929 367.663 858.764 347.063 868.24 324.404C877.715 301.745 866.592 238.299 858.764 212.756C850.936 187.213 843.109 129.535 786.667 129.535Z" stroke="white" stroke-width="0.823971"/>
<path opacity="0.2" d="M442.248 302.157C442.248 296.696 446.675 292.269 452.136 292.269H490.862C496.323 292.269 500.75 296.696 500.75 302.157C500.75 307.618 496.323 312.045 490.862 312.045H452.136C446.675 312.045 442.248 307.618 442.248 302.157Z" stroke="white" stroke-width="0.823971"/>
<path opacity="0.2" d="M206.355 393H251.533V401.435C251.533 403.489 249.868 405.153 247.815 405.153H206.355V393Z" stroke="white" stroke-width="2"/>
<path opacity="0.2" d="M112 393H157.177V405.153H115.718C113.664 405.153 112 403.489 112 401.435V393Z" stroke="white" stroke-width="2"/>
<path opacity="0.2" d="M159.178 393H204.355V405.153H159.178V393Z" stroke="white" stroke-width="2"/>
<path opacity="0.2" d="M663.977 393H720.948V401.435C720.948 403.489 719.284 405.153 717.231 405.153H667.694C665.641 405.153 663.977 403.489 663.977 401.435V393Z" stroke="white" stroke-width="2"/>
<path opacity="0.2" d="M655.876 403.794C652.619 403.794 649.979 406.435 649.979 409.692V429.23C649.979 431.184 651.563 432.768 653.517 432.768H671.002C675.575 432.768 678.947 437.039 677.886 441.486L675.766 450.375C675.26 452.499 673.361 453.998 671.177 453.998H571.989C569.805 453.998 567.907 452.499 567.4 450.375L565.28 441.486C564.22 437.039 567.592 432.768 572.164 432.768H590.34C592.294 432.768 593.878 431.184 593.878 429.23V409.692C593.878 406.435 591.238 403.794 587.981 403.794H566.085C561.668 403.794 557.661 401.206 555.845 397.18C554.784 392.732 558.156 392 562.728 392H662.977V401.435C662.977 402.295 663.207 403.1 663.608 403.794H655.876Z" stroke="white" stroke-width="2"/>
<path opacity="0.2" d="M726.486 393H783.458V401.435C783.458 403.489 781.794 405.153 779.74 405.153H730.204C728.151 405.153 726.486 403.489 726.486 401.435V393Z" stroke="white" stroke-width="2"/>
<path opacity="0.2" d="M787.816 393H844.788V401.435C844.788 403.489 843.124 405.153 841.07 405.153H791.534C789.481 405.153 787.816 403.489 787.816 401.435V393Z" stroke="white" stroke-width="2"/>
<path opacity="0.2" d="M351.58 409.692C351.58 406.435 354.221 403.794 357.477 403.794H378.683C383.1 403.794 387.107 401.206 388.923 397.18V397.18C389.984 392.733 386.612 392 382.039 392H264.33C259.758 392 256.386 392.732 257.446 397.18V397.18C259.262 401.206 263.269 403.794 267.686 403.794H289.582C292.839 403.794 295.479 406.435 295.479 409.692V429.23C295.479 431.184 293.895 432.768 291.941 432.768H273.765C269.193 432.768 265.821 437.039 266.882 441.486L269.001 450.375C269.508 452.499 271.407 453.998 273.59 453.998H372.779C374.963 453.998 376.861 452.499 377.368 450.375L379.488 441.486C380.548 437.039 377.176 432.768 372.604 432.768H355.119C353.164 432.768 351.58 431.184 351.58 429.23V409.692Z" stroke="white" stroke-width="2"/>
<path opacity="0.2" d="M269.59 382.547C269.59 369.316 280.316 358.59 293.547 358.59H655.453C668.684 358.59 679.41 369.316 679.41 382.547C679.41 390.203 673.203 396.41 665.547 396.41H472.989H395.545H283.453C275.797 396.41 269.59 390.203 269.59 382.547Z" stroke="white" stroke-width="1.17944"/>
<path opacity="0.2" d="M279.496 377.372C278.82 379.638 278.82 382.373 278.821 387.275C278.821 387.363 278.821 387.451 278.821 387.54C278.821 387.608 278.821 387.675 278.821 387.742C278.82 389.167 278.82 390.141 279.067 390.969C279.636 392.874 281.126 394.364 283.031 394.933C283.859 395.18 284.833 395.18 286.258 395.179C286.325 395.179 286.392 395.179 286.46 395.179H662.54L662.742 395.179C664.167 395.18 665.141 395.18 665.969 394.933C667.874 394.364 669.364 392.874 669.933 390.969C670.18 390.141 670.18 389.167 670.18 387.742L670.179 387.54V387.275C670.18 382.373 670.18 379.638 669.504 377.372C667.943 372.146 663.854 368.057 658.628 366.496C656.362 365.82 653.627 365.82 648.725 365.821L648.46 365.821H300.54C300.451 365.821 300.363 365.821 300.275 365.821C295.373 365.82 292.638 365.82 290.372 366.496C285.146 368.057 281.057 372.146 279.496 377.372Z" stroke="white" stroke-width="2.35887"/>
<g opacity="0.2">
<path d="M209.062 148.487C222.246 167.439 226.366 195.454 220.598 251.896C178.438 251.071 93.6242 249.011 91.6466 247.363C89.669 245.715 90.8226 237.613 91.6466 233.767C101.122 188.037 114.718 141.072 139.849 129.536C164.98 118 195.879 129.536 209.062 148.487Z" stroke="white" stroke-width="3"/>
<path d="M92.4707 234.179C141.341 237.616 168.329 238.157 216.066 237.887M216.066 237.887L220.598 250.659M216.066 237.887V193.393C216.066 174.442 211.946 150.546 196.703 136.127" stroke="white" stroke-width="0.823971"/>
<path d="M174.173 221.382V218.609L182.3 209.546C183.203 208.536 183.918 207.601 184.445 206.741C184.971 205.87 185.235 204.967 185.235 204.032C185.235 203.043 184.95 202.253 184.38 201.661C183.821 201.059 183.036 200.758 182.026 200.758C181.005 200.758 180.166 201.097 179.51 201.774C178.855 202.441 178.527 203.489 178.527 204.919V205.338H174.141V204.709C174.141 202.559 174.872 200.817 176.334 199.484C177.796 198.141 179.698 197.469 182.042 197.469C184.471 197.469 186.342 198.071 187.653 199.275C188.976 200.468 189.637 201.989 189.637 203.838C189.637 205.354 189.255 206.708 188.492 207.902C187.729 209.095 186.75 210.342 185.557 211.643L180.026 217.883H190.185V221.382H174.173Z" fill="white"/>
<path d="M158 221.382V197.904H162.354V217.964H172.432V221.382H158Z" fill="white"/>
</g>
<g opacity="0.2">
<path d="M742.08 148.487C728.897 167.439 724.777 195.454 730.545 251.896C772.704 251.071 857.518 249.011 859.496 247.363C861.474 245.715 860.32 237.613 859.496 233.767C850.02 188.037 836.425 141.072 811.294 129.536C786.163 118 755.264 129.536 742.08 148.487Z" stroke="white" stroke-width="3"/>
<path d="M858.672 234.179C809.801 237.616 782.814 238.157 735.076 237.887M735.076 237.887L730.544 250.659M735.076 237.887V193.393C735.076 174.442 739.196 150.546 754.44 136.127" stroke="white" stroke-width="0.823971"/>
<path d="M780.722 221.382V218.609L788.849 209.546C789.752 208.536 790.467 207.601 790.993 206.741C791.52 205.87 791.784 204.967 791.784 204.032C791.784 203.043 791.499 202.253 790.929 201.661C790.37 201.059 789.585 200.758 788.575 200.758C787.553 200.758 786.715 201.097 786.059 201.774C785.403 202.441 785.075 203.489 785.075 204.919V205.338H780.689V204.709C780.689 202.559 781.42 200.817 782.882 199.484C784.344 198.141 786.247 197.469 788.591 197.469C791.02 197.469 792.891 198.071 794.202 199.275C795.525 200.468 796.186 201.989 796.186 203.838C796.186 205.354 795.804 206.708 795.041 207.902C794.278 209.095 793.299 210.342 792.106 211.643L786.575 217.883H796.734V221.382H780.722Z" fill="white"/>
<path d="M762 221.382V197.904H770.288C772.804 197.904 774.76 198.554 776.158 199.855C777.555 201.145 778.254 202.897 778.254 205.112C778.254 207.348 777.545 209.138 776.126 210.482C774.707 211.815 772.75 212.481 770.256 212.481H766.354V221.382H762ZM766.354 209.304H769.917C771.39 209.304 772.422 208.923 773.013 208.16C773.605 207.396 773.9 206.413 773.9 205.209C773.9 204.005 773.605 203.032 773.013 202.29C772.422 201.548 771.39 201.177 769.917 201.177H766.354V209.304ZM774.513 221.382L769.192 210.675L773.529 210.143L779.351 221.382H774.513Z" fill="white"/>
</g>
<path d="M221.169 255.192C220.071 276.616 218.828 322.142 217.873 332.646C217.517 336.572 216.129 340.533 213.631 344.18M221.169 255.192L89.3341 251.896C81.0944 288.151 81.3552 320.286 97.5738 340.473C113.792 360.661 144.54 360.249 173.791 360.249C194.594 360.249 207.479 353.163 213.631 344.18M221.169 255.192C219.373 257.53 215.136 263.09 214.578 270.847C213.779 281.942 222.159 331.821 213.631 344.18" stroke="white" stroke-width="6"/>
<path d="M85.8789 266.727C127.091 271.356 157.53 271.575 214.006 271.258" stroke="white" stroke-width="0.823971"/>
<path d="M181.059 315.205V295.871L175.238 298.048V294.355L183.14 291.469H185.413V315.205H181.059Z" fill="white"/>
<path d="M158 315.205V291.727H162.354V311.786H172.432V315.205H158Z" fill="white"/>
<path d="M729.975 255.192C731.074 276.616 732.316 322.142 733.271 332.646C733.628 336.572 735.016 340.533 737.514 344.18M729.975 255.192L861.81 251.896C870.05 288.151 869.789 320.286 853.571 340.473C837.352 360.661 806.604 360.249 777.353 360.249C756.55 360.249 743.666 353.163 737.514 344.18M729.975 255.192C731.772 257.53 736.009 263.09 736.567 270.847C737.365 281.942 728.985 331.821 737.514 344.18" stroke="white" stroke-width="6"/>
<path d="M865.264 266.727C824.052 271.356 793.613 271.575 737.136 271.258" stroke="white" stroke-width="0.823971"/>
<path d="M790.606 315.205V295.871L784.785 298.048V294.355L792.686 291.469H794.96V315.205H790.606Z" fill="white"/>
<path d="M765 315.205V291.727H773.288C775.804 291.727 777.76 292.377 779.158 293.678C780.555 294.968 781.254 296.72 781.254 298.935C781.254 301.171 780.545 302.961 779.126 304.304C777.707 305.637 775.75 306.304 773.256 306.304H769.354V315.205H765ZM769.354 303.127H772.917C774.39 303.127 775.422 302.746 776.013 301.982C776.605 301.219 776.9 300.235 776.9 299.031C776.9 297.827 776.605 296.855 776.013 296.113C775.422 295.371 774.39 295 772.917 295H769.354V303.127ZM777.513 315.205L772.192 304.498L776.529 303.966L782.351 315.205H777.513Z" fill="white"/>
</svg>
